src/pos-icons/alpha-u-box-outline.svg

<svg height="24" viewBox="0 0 24 24" width="24" xmlns="http://www.w3.org/2000/svg"><path d="m9 7h2v8h2v-8h2v8a2 2 0 0 1 -2 2h-2a2 2 0 0 1 -2-2zm-4-4h14a2 2 0 0 1 2 2v14a2 2 0 0 1 -2 2h-14a2 2 0 0 1 -2-2v-14a2 2 0 0 1 2-2m0 2v14h14v-14z"/></svg>

<?xml version="1.0" encoding="UTF-8"?><!DOCTYPE svg PUBLIC "-//W3C//DTD SVG 1.1//EN" "http://www.w3.org/Graphics/SVG/1.1/DTD/svg11.dtd"><svg xmlns="http://www.w3.org/2000/svg" xmlns:xlink="http://www.w3.org/1999/xlink" version="1.1" id="mdi-alpha-u-box-outline" width="24" height="24" viewBox="0 0 24 24"><path d="M9,7H11V15H13V7H15V15A2,2 0 0,1 13,17H11A2,2 0 0,1 9,15V7M5,3H19A2,2 0 0,1 21,5V19A2,2 0 0,1 19,21H5A2,2 0 0,1 3,19V5A2,2 0 0,1 5,3M5,5V19H19V5H5Z" /></svg>
